X:545
T: Johnny Muise's Reel
R: reel
C: Jerry Holland
M: 4/4
L: 1/8
K: Amaj
af|:"A"ec c/c/c (Bc)AB|{B}c2(Bc) "D"BAFB|"A"AE E/E/E "F#m"ABcA|"Bm"dfaf "E7"edcd|
"A"ec c/c/c (Bc)AB|{B}c2(Bc) "D"BAFB|"A"AE E/E/E "F#m"ABcA|"E7"BABc "A"A4:|
cd|:"A"ea a/a/a "A7"~a2ga|"D"(ba)ga fedf|"A"ec c/c/c "F#m"acec|"Bm"fedc "A7"Bcdf|
"A"ea a/a/a "A7"~a2ga|"D"(ba)ga fedf|"A"ec c/c/c "F#m"acec|"E7"BdcB "A"A4:|


